Origami/24x24/apps/dolphin-emu.svg

<svg width="24" height="24" version="1.1" viewBox="0 0 24 24" xmlns="http://www.w3.org/2000/svg">
 <path d="m21.970441 19.539605c-0.07769-0.656436-0.419575-1.212583-0.6942-1.659483-0.0967-0.157284-0.208329-0.2459-0.27624-0.378658-0.007275-4.057419-1.696874-8.8941858-5.500001-10.996082 0.5-0.3685116 0.899358-0.7573759 1.353295-1.0423131 0.275758-0.2031013 0.152307-0.738078-0.05459-0.8630299-1.55221-0.2657359-3.186138 0.0492044-4.601085 0.5288736-0.917589 0.3110941-1.363248 0.3542237-1.87924 0.404111-0.4387662 0.0424349-1.4361554 0.0905627-2.2263065 0.2915611-2.2757137 0.5789787-3.3462653 1.4973788-3.9535508 2.1002039-0.474072 0.4705725-0.6647937 0.9495221-0.6385236 1.3386681-0.1128121 0.056485-0.1727741 0.1194825-0.2975102 0.184759-0.8340277 0.4363246-1.1228121 0.6402023-1.1894187 0.9877433-0.049094 0.256468 0.041082 0.424486 0.2542233 0.654404 0.343966 0.319657 0.539563 0.409675 1.0796806 0.409675 0.3940883 0 0.5013669-0.120061 0.9868971-0.226603 0.4297298-0.09429 0.9645395-0.211569 1.3707011-0.25072 0.5157125-0.04978 1.0316121-0.0023 1.8100257 0.149839 0.2305615 0.04508 0.491865 0.09614 0.778227 0.147807 0.3680606 0.06639 0.7517711 0.200161 1.1406982 0.200161 0.330891 0 0.8237898 0.01352 1.0626428-0.01692 0.173177 0.324115 0.460843 1.009896 0.924668 1.561819 1.210006 1.439877 2.264953 1.436096 2.409718 1.43711 0.261675 0.0035 0.508353-0.07452 0.628897-0.28769 0.120544-0.213259 0.10005-0.467873-0.05561-0.661429-0.0032-4e-3 -0.263034-0.408759-0.387118-1.059957-0.0354-0.185524-0.0196-0.341971-0.01671-0.490033 1.610513 0.468368 4.162502 1.895091 4.489335 3.449163l0.01066 0.549413c-0.0046-1.95e-4 0.0046 1e-4 0 0-0.07406-3e-3 -0.298104-0.0038-0.410823-0.0038-0.292977 0-0.61008 0.02943-0.969384 0.08626-1.166875 0.184589-1.845311 0.937766-1.924493 1.02309-0.182959 0.196935-0.226743 0.675292-0.09511 0.903521 0.130606 0.226614 0.388276 0.360391 0.668676 0.338579l0.01295-8.5e-5c1.783953 0.246582 4.047485 1.35986 4.780757 2.780489 0.114489 0.226619 0.363402 0.369948 0.634859 0.369948 0.01742 0 0.03494-4.9e-4 0.05245-2e-3 0.291393-0.0198 0.538443-0.202093 0.619209-0.456957 0.02059-0.06587 0.200379-0.666077 0.101354-1.501609z" style="opacity:.2"/>
 <path d="m21.970441 19.039566c-0.07769-0.656436-0.419575-1.212583-0.6942-1.659483-0.0967-0.157284-0.208329-0.2459-0.27624-0.378658-0.007275-4.057419-1.696874-8.8941858-5.500001-10.996082 0.5-0.3685116 0.899358-0.7573759 1.353295-1.0423131 0.275758-0.2031013 0.152307-0.738078-0.05459-0.8630299-1.55221-0.2657359-3.186138 0.0492044-4.601085 0.5288736-0.917589 0.3110941-1.363248 0.3542237-1.87924 0.404111-0.4387662 0.0424349-1.4361554 0.0905627-2.2263065 0.2915611-2.2757137 0.5789787-3.3462653 1.4973788-3.9535508 2.1002039-0.474072 0.4705725-0.6647937 0.9495221-0.6385236 1.3386681-0.1128121 0.056485-0.1727741 0.1194825-0.2975102 0.184759-0.8340277 0.4363246-1.1228121 0.6402021-1.1894187 0.9877431-0.049094 0.2564682 0.041082 0.4244862 0.2542233 0.6544042 0.343966 0.319657 0.539563 0.409675 1.0796806 0.409675 0.3940883 0 0.5013669-0.120061 0.9868971-0.226603 0.4297298-0.09429 0.9645395-0.211569 1.3707011-0.25072 0.5157125-0.04978 1.0316121-0.0023 1.8100257 0.149839 0.2305615 0.04508 0.491865 0.09614 0.778227 0.147807 0.3680606 0.06639 0.7517711 0.200161 1.1406982 0.200161 0.330891 0 0.8237898 0.01352 1.0626428-0.01692 0.173177 0.324115 0.460843 1.009896 0.924668 1.561819 1.210006 1.439877 2.264953 1.436096 2.409718 1.43711 0.261675 0.0035 0.508353-0.07452 0.628897-0.28769 0.120544-0.213259 0.10005-0.467873-0.05561-0.661429-0.0032-4e-3 -0.263034-0.408759-0.387118-1.059957-0.0354-0.185524-0.0196-0.341971-0.01671-0.490033 1.610513 0.468368 4.162502 1.895091 4.489335 3.449163l0.01066 0.549413c-0.0046-1.95e-4 0.0046 1e-4 0 0-0.07406-3e-3 -0.298104-0.0038-0.410823-0.0038-0.292977 0-0.61008 0.02943-0.969384 0.08626-1.166875 0.184589-1.845311 0.937766-1.924493 1.02309-0.182959 0.196935-0.226743 0.675292-0.09511 0.903521 0.130606 0.226614 0.388276 0.360391 0.668676 0.338579l0.01295-8.5e-5c1.783953 0.246582 4.047485 1.35986 4.780757 2.780489 0.114489 0.226619 0.363402 0.369948 0.634859 0.369948 0.01742 0 0.03494-4.9e-4 0.05245-2e-3 0.291393-0.0198 0.538443-0.202093 0.619209-0.456957 0.02059-0.06587 0.200379-0.666077 0.101354-1.501609z" style="fill:#489cf2"/>
 <circle cx="5.5" cy="9" r=".5" style="opacity:.2"/>
 <circle cx="5.5" cy="8.5" r=".5" style="fill:#ffffff"/>
 <path d="m15.623047 4.0039062c-1.180707-0.0010458-2.364571 0.2652482-3.425781 0.625-0.917589 0.3110942-1.362915 0.3544096-1.878907 0.4042969-0.4387658 0.0424349-1.436411 0.0900173-2.2265621 0.2910157-2.2757137 0.5789787-3.3458395 1.4967842-3.953125 2.0996093-0.474072 0.4705725-0.664942 0.9506978-0.6386719 1.3398438-0.1128121 0.056485-0.1721389 0.1183172-0.296875 0.1835937-0.8340277 0.4363246-1.1228465 0.6407403-1.1894531 0.9882813-0.0271105 0.1416261-0.0043015 0.2580941 0.0507812 0.3710941 0.11456-0.273054 0.4171426-0.481905 1.1386719-0.8593754 0.1247361-0.0652765 0.1840629-0.1271087 0.296875-0.1835937-0.0262701-0.389146 0.1645999-0.8692713 0.6386719-1.3398438 0.6072855-0.6028251 1.6774113-1.5206306 3.953125-2.0996093 0.7901511-0.2009985 1.7877963-0.2485808 2.2265621-0.2910157 0.515992-0.0498873 0.961318-0.0932027 1.878907-0.4042969 1.414947-0.4796691 3.049352-0.7950327 4.601562-0.5292968 0.064216 0.0387819 0.113646 0.1231529 0.152344 0.21875 0.118006-0.2447475 0.017705-0.6160519-0.152344-0.71875-0.388052-0.066434-0.782212-0.0953545-1.175781-0.0957032zm0.230469 2.2207032c-0.11687 0.0944582-0.226151 0.1873789-0.353516 0.28125 3.803127 2.1018962 5.492725 6.9386746 5.5 10.996094 0.067911 0.132758 0.178691 0.221622 0.275391 0.378906 0.274625 0.4469 0.617622 1.001768 0.695312 1.658203 0.011876 0.100201 0.009061 0.184428 0.013672 0.277344 0.015929-0.225107 0.021786-0.478166-0.013672-0.777344-0.07769-0.656435-0.420687-1.211303-0.695312-1.658203-0.0967-0.157284-0.20748-0.246148-0.275391-0.378906-0.007041-3.926888-1.596889-8.5762819-5.146484-10.777344zm-1.853516 5.7792966c-0.00289 0.148062-0.017822 0.304711 0.017578 0.490235 0.124084 0.651198 0.383519 1.054593 0.386719 1.058593 0.030069 0.03739 0.050373 0.079886 0.070312 0.121094 0.096829-0.204537 0.075757-0.439463-0.070312-0.621094-0.003168-0.00396-0.25733-0.40114-0.382813-1.041015-0.006811-0.002005-0.014705-0.005841-0.021484-0.007813zm4.089844 3.494141c-0.292977 0-0.611399 0.029107-0.970703 0.085937-1.166875 0.184589-1.844647 0.938114-1.923829 1.023438-0.157534 0.169568-0.204778 0.539577-0.132812 0.787109 0.028467-0.113716 0.06941-0.218864 0.132812-0.287109 0.079182-0.085324 0.756954-0.838849 1.923829-1.023438 0.359304-0.05683 0.677726-0.085937 0.970703-0.085937 0.112719 0 0.336096 9.06e-4 0.410156 0.003906l-0.009766-0.5c-0.079123-0.002827-0.290355-0.003906-0.40039-0.003906z" style="fill:#ffffff;opacity:.2"/>
</svg>

<svg xmlns="http://www.w3.org/2000/svg" width="24" height="24" x="0" y="0" version="1.1" viewBox="0 0 24 24" xml:space="preserve">
 <path style="opacity:0.2" d="m 21.970441,19.539605 c -0.07769,-0.656436 -0.419575,-1.212583 -0.6942,-1.659483 -0.0967,-0.157284 -0.208329,-0.2459 -0.27624,-0.378658 C 20.992726,13.444045 19.303127,8.6072782 15.5,6.505382 16,6.1368704 16.399358,5.7480061 16.853295,5.4630689 17.129053,5.2599676 17.005602,4.7249909 16.798705,4.600039 15.246495,4.3343031 13.612567,4.6492434 12.19762,5.1289126 11.280031,5.4400067 10.834372,5.4831363 10.31838,5.5330236 9.8796138,5.5754585 8.8822246,5.6235863 8.0920735,5.8245847 5.8163598,6.4035634 4.7458082,7.3219635 4.1385227,7.9247886 3.6644507,8.3953611 3.473729,8.8743107 3.4999991,9.2634567 3.387187,9.3199417 3.327225,9.3829392 3.2024889,9.4482157 2.3684612,9.8845403 2.0796768,10.088418 2.0130702,10.435959 c -0.049094,0.256468 0.041082,0.424486 0.2542233,0.654404 0.343966,0.319657 0.539563,0.409675 1.0796806,0.409675 0.3940883,0 0.5013669,-0.120061 0.9868971,-0.226603 0.4297298,-0.09429 0.9645395,-0.211569 1.3707011,-0.25072 0.5157125,-0.04978 1.0316121,-0.0023 1.8100257,0.149839 0.2305615,0.04508 0.491865,0.09614 0.778227,0.147807 0.3680606,0.06639 0.7517711,0.200161 1.1406982,0.200161 0.330891,0 0.8237898,0.01352 1.0626428,-0.01692 0.173177,0.324115 0.460843,1.009896 0.924668,1.561819 1.210006,1.439877 2.264953,1.436096 2.409718,1.43711 0.261675,0.0035 0.508353,-0.07452 0.628897,-0.28769 0.120544,-0.213259 0.10005,-0.467873 -0.05561,-0.661429 -0.0032,-0.004 -0.263034,-0.408759 -0.387118,-1.059957 -0.0354,-0.185524 -0.0196,-0.341971 -0.01671,-0.490033 1.610513,0.468368 4.162502,1.895091 4.489335,3.449163 l 0.01066,0.549413 c -0.0046,-1.95e-4 0.0046,10e-5 0,0 -0.07406,-0.003 -0.298104,-0.0038 -0.410823,-0.0038 -0.292977,0 -0.61008,0.02943 -0.969384,0.08626 -1.166875,0.184589 -1.845311,0.937766 -1.924493,1.02309 -0.182959,0.196935 -0.226743,0.675292 -0.09511,0.903521 0.130606,0.226614 0.388276,0.360391 0.668676,0.338579 l 0.01295,-8.5e-5 c 1.783953,0.246582 4.047485,1.35986 4.780757,2.780489 0.114489,0.226619 0.363402,0.369948 0.634859,0.369948 0.01742,0 0.03494,-4.9e-4 0.05245,-0.002 0.291393,-0.0198 0.538443,-0.202093 0.619209,-0.456957 0.02059,-0.06587 0.200379,-0.666077 0.101354,-1.501609 z"/>
 <path style="fill:#489cf2" d="m 21.970441,19.039566 c -0.07769,-0.656436 -0.419575,-1.212583 -0.6942,-1.659483 -0.0967,-0.157284 -0.208329,-0.2459 -0.27624,-0.378658 C 20.992726,12.944006 19.303127,8.1072392 15.5,6.005343 16,5.6368314 16.399358,5.2479671 16.853295,4.9630299 17.129053,4.7599286 17.005602,4.2249519 16.798705,4.1 15.246495,3.8342641 13.612567,4.1492044 12.19762,4.6288736 11.280031,4.9399677 10.834372,4.9830973 10.31838,5.0329846 9.8796138,5.0754195 8.8822246,5.1235473 8.0920735,5.3245457 5.8163598,5.9035244 4.7458082,6.8219245 4.1385227,7.4247496 3.6644507,7.8953221 3.473729,8.3742717 3.4999991,8.7634177 3.387187,8.8199027 3.327225,8.8829002 3.2024889,8.9481767 2.3684612,9.3845013 2.0796768,9.5883788 2.0130702,9.9359198 c -0.049094,0.2564682 0.041082,0.4244862 0.2542233,0.6544042 0.343966,0.319657 0.539563,0.409675 1.0796806,0.409675 0.3940883,0 0.5013669,-0.120061 0.9868971,-0.226603 0.4297298,-0.09429 0.9645395,-0.211569 1.3707011,-0.25072 0.5157125,-0.04978 1.0316121,-0.0023 1.8100257,0.149839 0.2305615,0.04508 0.491865,0.09614 0.778227,0.147807 0.3680606,0.06639 0.7517711,0.200161 1.1406982,0.200161 0.330891,0 0.8237898,0.01352 1.0626428,-0.01692 0.173177,0.324115 0.460843,1.009896 0.924668,1.561819 1.210006,1.439877 2.264953,1.436096 2.409718,1.43711 0.261675,0.0035 0.508353,-0.07452 0.628897,-0.28769 0.120544,-0.213259 0.10005,-0.467873 -0.05561,-0.661429 -0.0032,-0.004 -0.263034,-0.408759 -0.387118,-1.059957 -0.0354,-0.185524 -0.0196,-0.341971 -0.01671,-0.490033 1.610513,0.468368 4.162502,1.895091 4.489335,3.449163 l 0.01066,0.549413 c -0.0046,-1.95e-4 0.0046,10e-5 0,0 -0.07406,-0.003 -0.298104,-0.0038 -0.410823,-0.0038 -0.292977,0 -0.61008,0.02943 -0.969384,0.08626 -1.166875,0.184589 -1.845311,0.937766 -1.924493,1.02309 -0.182959,0.196935 -0.226743,0.675292 -0.09511,0.903521 0.130606,0.226614 0.388276,0.360391 0.668676,0.338579 l 0.01295,-8.5e-5 c 1.783953,0.246582 4.047485,1.35986 4.780757,2.780489 0.114489,0.226619 0.363402,0.369948 0.634859,0.369948 0.01742,0 0.03494,-4.9e-4 0.05245,-0.002 0.291393,-0.0198 0.538443,-0.202093 0.619209,-0.456957 0.02059,-0.06587 0.200379,-0.666077 0.101354,-1.501609 z"/>
 <circle style="opacity:0.2" cx="5.5" cy="9" r=".5"/>
 <circle style="fill:#ffffff" cx="5.5" cy="8.5" r=".5"/>
 <path style="fill:#ffffff;opacity:0.2" d="M 15.623047 4.0039062 C 14.44234 4.0028604 13.258476 4.2691544 12.197266 4.6289062 C 11.279677 4.9400004 10.834351 4.9833158 10.318359 5.0332031 C 9.8795932 5.075638 8.881948 5.1232204 8.0917969 5.3242188 C 5.8160832 5.9031975 4.7459574 6.821003 4.1386719 7.4238281 C 3.6645999 7.8944006 3.4737299 8.3745259 3.5 8.7636719 C 3.3871879 8.8201569 3.3278611 8.8819891 3.203125 8.9472656 C 2.3690973 9.3835902 2.0802785 9.5880059 2.0136719 9.9355469 C 1.9865614 10.077173 2.0093704 10.193641 2.0644531 10.306641 C 2.1790131 10.033587 2.4815957 9.824736 3.203125 9.4472656 C 3.3278611 9.3819891 3.3871879 9.3201569 3.5 9.2636719 C 3.4737299 8.8745259 3.6645999 8.3944006 4.1386719 7.9238281 C 4.7459574 7.321003 5.8160832 6.4031975 8.0917969 5.8242188 C 8.881948 5.6232203 9.8795932 5.575638 10.318359 5.5332031 C 10.834351 5.4833158 11.279677 5.4400004 12.197266 5.1289062 C 13.612213 4.6492371 15.246618 4.3338735 16.798828 4.5996094 C 16.863044 4.6383913 16.912474 4.7227623 16.951172 4.8183594 C 17.069178 4.5736119 16.968877 4.2023075 16.798828 4.0996094 C 16.410776 4.0331754 16.016616 4.0042549 15.623047 4.0039062 z M 15.853516 6.2246094 C 15.736646 6.3190676 15.627365 6.4119883 15.5 6.5058594 C 19.303127 8.6077556 20.992725 13.444534 21 17.501953 C 21.067911 17.634711 21.178691 17.723575 21.275391 17.880859 C 21.550016 18.327759 21.893013 18.882627 21.970703 19.539062 C 21.982579 19.639263 21.979764 19.72349 21.984375 19.816406 C 22.000304 19.591299 22.006161 19.33824 21.970703 19.039062 C 21.893013 18.382627 21.550016 17.827759 21.275391 17.380859 C 21.178691 17.223575 21.067911 17.134711 21 17.001953 C 20.992959 13.075065 19.403111 8.4256711 15.853516 6.2246094 z M 14 12.003906 C 13.99711 12.151968 13.982178 12.308617 14.017578 12.494141 C 14.141662 13.145339 14.401097 13.548734 14.404297 13.552734 C 14.434366 13.590124 14.45467 13.63262 14.474609 13.673828 C 14.571438 13.469291 14.550366 13.234365 14.404297 13.052734 C 14.401129 13.048774 14.146967 12.651594 14.021484 12.011719 C 14.014673 12.009714 14.006779 12.005878 14 12.003906 z M 18.089844 15.498047 C 17.796867 15.498047 17.478445 15.527154 17.119141 15.583984 C 15.952266 15.768573 15.274494 16.522098 15.195312 16.607422 C 15.037778 16.77699 14.990534 17.146999 15.0625 17.394531 C 15.090967 17.280815 15.13191 17.175667 15.195312 17.107422 C 15.274494 17.022098 15.952266 16.268573 17.119141 16.083984 C 17.478445 16.027154 17.796867 15.998047 18.089844 15.998047 C 18.202563 15.998047 18.42594 15.998953 18.5 16.001953 L 18.490234 15.501953 C 18.411111 15.499126 18.199879 15.498047 18.089844 15.498047 z"/>
</svg>
